X: 1
T:Kitty's Rambles
M:6/8
L:1/8
S:Laurence Nugent, _Traditional Irish Music on Flute and Tin-whistle_
R:Double Jig
K:DMix
ADD c2A|~d3 efg|fed cAG|~F3 GFE|ADD c2A|~d3 efg|fed cAG|Ad^c d3:||
||:afd ~d3|Adf agf|gec cBc|Gce gfe|~f3 gfg|agf efg|fed cAG|Ad^c d3:||
||:dfa dfa|dfa afd|ceg ceg|ceg gfe|~f3 gfg|agf efg|fed cAG|Ad^c d3:||
